src/assets/images/icons/minimize-2.svg

<svg xmlns="http://www.w3.org/2000/svg" fill="none" viewBox="0 0 24 24"><path stroke="#181D27" stroke-linecap="round" stroke-linejoin="round" stroke-width="2" d="M4 14h6m0 0v6m0-6-7 7m17-11h-6m0 0V4m0 6 7-7"/></svg>

<svg width="24" height="24" viewBox="0 0 24 24" fill="none" xmlns="http://www.w3.org/2000/svg">
<path d="M4 14H10M10 14V20M10 14L3 21M20 10H14M14 10V4M14 10L21 3" stroke="#181D27" stroke-width="2" stroke-linecap="round" stroke-linejoin="round"/>
</svg>
